X:210
T:Kenny's Reel
C:by David Cahn
N:TablEdited by Mike Black
L:1/8
Q:1/4=200
M:4/4
K:A
z4 ze fg |: "A"ae ca "A7"ec (3ABc | "D"de fd "D#dim"B2 BA | "E7"GE GB "F7"=cA =Fc | 
"E7"BG (3EFG (3Bcd (3efg | "A"ae ca "A7"ec (3ABc | "D"de fd Fa gf | "E7"ec de ce Be | 
|1 A"A"a ec Ae fg :|2 "A"Aa ec Ae cA |: "F#7 "F^A ce "Bm"dB fd | "E7"BG ED "A"CE Ac | 
"B7"BF ^DB "C7"=c=G Ec | "B7"B^d fb "E7"gb eg | "A"ae ca "A7"ec (3ABc | "D"de fd "B7"Fa gf | 
"E7"ec de ce Be |1 A"A"a ec Ae cA :|2 A"A"a ec Ae fg | "A"Aa ec A4 | 
 

